assets/img/logo.svg

<svg width="28" height="32" viewBox="0 0 28 32" fill="none" xmlns="http://www.w3.org/2000/svg">
<g clip-path="url(#clip0)">
<path d="M19.5182 11.0373C19.4653 8.40252 18.4029 5.87248 17.0234 3.62007C17.7793 3.15911 18.6408 2.90244 19.5129 3.07006C20.385 3.23768 21.1831 3.80864 21.5583 4.60485C21.8807 5.30152 21.8649 6.09772 21.812 6.8625C21.7856 7.20298 21.7539 7.5487 21.6429 7.87347C21.5689 8.08299 21.4685 8.2768 21.3522 8.46014C21.2042 8.7011 21.0351 8.92634 20.8659 9.15158C20.4167 9.76444 19.9674 10.4245 19.5182 11.0373Z" fill="#999999"/>
<path d="M13.4133 5.63666C12.6152 4.47379 12.1078 3.61996 10.612 2.81328C9.11621 2.00661 9.11621 2.01184 9.11621 2.01184C9.11621 2.01184 10.8498 -0.581051 13.0274 0.126102C15.205 0.833256 14.5126 5.51618 14.0686 7.3024" fill="#4D4D4D"/>
<path d="M6.07715 0.942742C6.07715 0.942742 8.42916 0.869408 11.0771 2.81801C12.4831 3.85517 14.1374 6.02377 14.0687 7.30188C14 8.58 10.9767 14.7768 10.7706 18.3335C10.5645 21.8902 10.7812 26.4055 11.9175 27.4846C13.0539 28.5636 13.9418 30.0879 16.1036 30.9889C19.0158 32.2042 17.1289 32.0313 13.9154 30.8213C12.6945 30.3603 12.4038 30.5698 10.6702 28.8989C5.9873 24.3993 7.43021 22.5869 7.45136 16.2644C7.46721 11.6758 7.69448 6.42187 7.84248 4.65661C7.99047 2.95944 8.22831 2.7342 7.19766 1.87514C6.07715 0.942742 6.07715 0.942742 6.07715 0.942742Z" fill="#1A1A1A"/>
<path d="M14.359 5.26469C14.1846 7.15567 13.3865 8.90522 12.6677 10.6391C11.9383 12.4043 11.1984 14.2534 10.6962 16.0972C9.92458 18.9258 9.84001 21.9116 10.173 24.8293C10.2893 25.8298 10.4584 26.8564 10.9922 27.7155C11.4521 28.4541 12.1392 29.0198 12.8316 29.5541C14.3273 30.7065 15.9711 31.8222 17.858 32.0056C15.913 30.4917 14.5229 28.3336 13.8622 25.9817C13.1381 23.4045 13.3337 20.9268 14.6075 18.5592C14.951 17.9254 15.3421 17.3177 15.7385 16.7153C16.8908 14.9501 18.043 13.1848 19.1899 11.4195C19.3485 11.1786 19.5123 10.9272 19.5757 10.6443C19.6445 10.3457 19.5969 10.0367 19.544 9.73285C19.0683 7.07709 17.9214 4.54706 16.2406 2.43084C15.2523 1.17891 13.9098 0.000322679 12.3136 0.000322679C13.043 -0.0153918 13.6349 0.545093 13.9573 1.19463C14.2798 1.84416 14.3379 2.58798 14.3696 3.31085C14.4013 3.96038 14.4225 4.61515 14.359 5.26469Z" fill="#808080"/>
<path d="M26.9758 16.1599C26.8278 15.8142 26.6428 15.4842 26.4156 15.1804C26.2887 15.0075 26.1513 14.8451 26.0191 14.6775C25.6967 14.2532 25.591 13.6927 25.1893 13.347C24.7771 12.9961 24.6397 12.3675 24.8564 11.8698C24.9462 11.6656 25.0942 11.4875 25.1841 11.2884C25.4483 10.7174 25.2686 10.047 25.0149 9.47077C24.6608 8.66409 24.1693 7.9255 23.6513 7.20787C22.9483 6.22834 22.1978 5.28547 21.405 4.37402C21.5477 5.15975 21.479 5.91928 21.2887 6.69977C21.183 7.1293 21.035 7.54836 20.8447 7.9517C20.6122 8.44408 20.3162 8.91028 20.0202 9.37124C18.2866 12.0689 16.5001 14.7351 14.6608 17.3647C13.609 18.868 13.2443 20.8481 13.1227 22.671C13.0012 24.4938 13.3553 26.3691 14.2644 27.9615C14.7929 28.8887 15.5012 29.7058 16.22 30.502C16.6745 31.0049 17.2031 31.7801 17.8532 32.0001C17.9378 31.2301 18.0752 30.193 18.1809 29.4282C18.3606 28.1815 18.7676 26.961 19.386 25.861C19.8035 25.1119 20.369 24.3734 21.1883 24.101C21.7433 23.9176 22.3669 23.991 22.9536 24.0434C23.2813 24.0172 23.6143 24.0643 23.942 24.0643C24.2697 24.0643 24.6185 24.0172 24.8828 23.8286C25.1788 23.6191 25.3373 23.2681 25.3902 22.9119C25.443 22.5557 25.4008 22.1838 25.3796 21.8276C25.3638 21.5919 25.3532 21.3457 25.4642 21.1362C25.665 20.7485 26.2359 20.5652 26.2676 20.1304C26.2834 19.9314 26.1724 19.7481 26.0931 19.5595C26.0139 19.3709 25.9769 19.1404 26.1143 18.9885C26.183 18.9152 26.2781 18.8785 26.3416 18.8052C26.4737 18.648 26.3997 18.4123 26.2834 18.2447C26.1671 18.0771 26.0086 17.9252 25.9769 17.7261C25.9399 17.5323 26.035 17.3333 26.1724 17.1866C26.3098 17.0399 26.4843 16.9404 26.6587 16.8356C26.8225 16.7361 26.9969 16.6052 27.0128 16.4166C27.0181 16.3328 26.9917 16.249 26.9652 16.1704C26.8542 15.8666 26.701 15.5785 26.5054 15.3166" fill="#CCCCCC"/>
<path d="M14.5393 31.0468C14.1271 30.8529 2.68417 28.8886 1.03512 11.896C0.585859 7.27069 2.86916 2.93348 2.86916 2.93348C2.86916 2.93348 4.58692 0.387729 6.78036 1.04774C9.36493 1.82299 7.82687 12.0165 7.73174 13.8551C7.73174 13.8551 7.15563 18.8418 8.51398 24.8762C9.50235 29.2448 14.5393 31.0468 14.5393 31.0468Z" fill="#151512"/>
</g>
<defs>
<clipPath id="clip0">
<rect width="26.0465" height="32" fill="white" transform="translate(0.976562)"/>
</clipPath>
</defs>
</svg>

<svg width="28" height="32" fill="none" xmlns="http://www.w3.org/2000/svg"><g clip-path="url(#clip0)"><path d="M19.518 11.037c-.053-2.634-1.115-5.165-2.495-7.417.756-.46 1.618-.718 2.49-.55.872.168 1.67.739 2.045 1.535.323.697.307 1.493.254 2.257-.026.341-.058.687-.17 1.011-.073.21-.174.404-.29.587a9.033 9.033 0 01-.486.692c-.45.612-.899 1.273-1.348 1.885z" fill="#999"/><path d="M13.413 5.637c-.798-1.163-1.305-2.017-2.801-2.824-1.496-.806-1.496-.801-1.496-.801S10.85-.581 13.027.126c2.178.707 1.486 5.39 1.042 7.176" fill="#4D4D4D"/><path d="M6.077.943s2.352-.074 5 1.875c1.406 1.037 3.06 3.206 2.992 4.484C14 8.58 10.977 14.777 10.77 18.334c-.207 3.556.01 8.072 1.146 9.15 1.137 1.08 2.025 2.604 4.187 3.505 2.912 1.215 1.025 1.042-2.189-.168-1.22-.46-1.511-.251-3.245-1.922-4.683-4.5-3.24-6.312-3.219-12.635.016-4.588.243-9.842.391-11.607.148-1.698.386-1.923-.644-2.782L6.078.943z" fill="#1A1A1A"/><path d="M14.359 5.265c-.174 1.89-.973 3.64-1.691 5.374-.73 1.765-1.47 3.614-1.972 5.458-.771 2.829-.856 5.815-.523 8.732.116 1 .285 2.027.82 2.886.46.74 1.146 1.305 1.839 1.84 1.495 1.151 3.14 2.267 5.026 2.45-1.945-1.513-3.335-3.671-3.996-6.023-.724-2.578-.528-5.055.745-7.423.344-.634.735-1.241 1.132-1.844 1.152-1.765 2.304-3.53 3.45-5.296.16-.24.323-.492.387-.775.069-.298.02-.607-.032-.911a16.463 16.463 0 00-3.303-7.302C15.252 1.179 13.91 0 12.314 0c.729-.016 1.32.544 1.643 1.194.323.65.38 1.393.413 2.116.031.65.053 1.304-.011 1.954z" fill="gray"/><path d="M26.976 16.16a4.756 4.756 0 00-.56-.98c-.127-.172-.265-.335-.397-.502-.322-.425-.428-.985-.83-1.331-.412-.35-.55-.98-.333-1.477.09-.204.238-.382.328-.582.264-.57.085-1.241-.17-1.817-.353-.807-.845-1.545-1.363-2.263a38.71 38.71 0 00-2.246-2.834c.143.786.074 1.545-.116 2.326-.106.43-.254.848-.444 1.252-.233.492-.529.958-.825 1.42a245.641 245.641 0 01-5.36 7.993c-1.051 1.503-1.416 3.483-1.537 5.306-.122 1.823.232 3.698 1.141 5.29.529.928 1.237 1.745 1.956 2.541.454.503.983 1.278 1.633 1.498.085-.77.222-1.807.328-2.572.18-1.247.587-2.467 1.205-3.567.418-.75.983-1.488 1.802-1.76.555-.183 1.179-.11 1.766-.058.327-.026.66.021.988.021.328 0 .677-.047.94-.235.297-.21.455-.56.508-.917.053-.356.01-.728-.01-1.084-.016-.236-.027-.482.084-.692.201-.387.772-.57.804-1.006.015-.199-.096-.382-.175-.57-.08-.19-.116-.42.021-.572.069-.073.164-.11.228-.183.132-.157.058-.393-.059-.56-.116-.168-.274-.32-.306-.519-.037-.194.058-.393.195-.54.138-.146.312-.246.487-.35.164-.1.338-.23.354-.42a.657.657 0 00-.048-.246 3.34 3.34 0 00-.46-.853" fill="#CCC"/><path d="M14.54 31.047c-.413-.194-11.856-2.158-13.505-19.151C.585 7.271 2.87 2.933 2.87 2.933S4.587.388 6.78 1.048c2.585.775 1.047 10.969.952 12.807 0 0-.576 4.987.782 11.021.988 4.369 6.025 6.17 6.025 6.17z" fill="#151512"/></g><defs><clipPath id="clip0"><path fill="#fff" transform="translate(.977)" d="M0 0h26.047v32H0z"/></clipPath></defs></svg>
